X:693
T: DER KAISER UND DER KOENIG
N: E2119A
O: Europa, Mitteleuropa, Deutschland, Hessen, Dill - Kreis; Westerwald
R: geistlich, Heiligen - Lied, Legende
M: 6/8
L: 1/8
K: G
D | B2AG2E | EDz3
D | A2DA2c | B3z2
G | G2Ge2e | d2BG2
G | D2Dd2c | B3z2

